X:1031
M:C|
L:1/8
Q:1/2=104
K:D
  d>efe d>BAd      |B>ABd e/e/e eg|(f>ef)b afef|dBAF D/D/D [1 D2:|\
                                                           [2 D ||
                                                           [2 d2||

